X: 11011
T: MY LOVE IS BUT A LASSIE YET
%R: march, air
B: "Edinburgh Repository of Music" v.1 p.101 #1
F: http://digital.nls.uk/special-collections-of-printed-music/pageturner.cfm?id=87776133
Z: 2015 John Chambers <jc:trillian.mit.edu>
M: 2/4
L: 1/16
K: G
ef |\
g2G2B2d2 | g2G2G2ef | g2G2B2d2 | a2A2A2ef |\
g2G2B2d2 | e2c'2b3a | (gf).e.d e2f2 | g2G2G2 :|
|: bc' |\
d'2b2c'2a2 | b2g2g2bc' | d'2b2c'2b2 | a2A2A2bc' |\
d'2b2c'2a2 | b2g2Ha3f | gfed e2f2 | g2G2G2 :|

%%sep 2 1 500
%%sep 1 1 500

